X:1
T:My Mother Chose My Husband
M:4/4
L:1/8
K:C
 G| cc EF G2 G3/2 G/2| cc EF G3 G| cG cd e3 e| fe dc d2 fe| A2 AB cd fe|\
 G2 AB c3||
